X:1
T:Well-Tempered Clavier: Fugue 2 (BWV 847)
T:Johann Sebastian Bach
%%score 1 2 3
L:1/8
Q:1/4=96
M:4/4
K:Eb
V:1 treble nm="Piano"
V:2 treble nm="Piano"
V:3 bass nm="Piano"
V:1
"^Andante" z8[Q:1/4=92]"^T1"[Q:1/4=96]"^T1" | %1
[Q:1/4=92]"^T1" z8[Q:1/4=96]"^T1"[Q:1/4=90]"^T1"[Q:1/4=96]"^T1" | %2
[Q:1/4=90]"^T1" z[Q:1/4=92]"^T1" g/^f/[Q:1/4=94]"^T1" .g[Q:1/4=96]"^T1".c .eg/f/ .g.=a | %3
 .dg/^f/ .g.=a c/d/[Q:1/4=92]"^T1" e2 d/c/[Q:1/4=96]"^T1" | %4
 .Be/d/[Q:1/4=90]"^T1" .e[Q:1/4=92]"^T1".G[Q:1/4=94]"^T1" A[Q:1/4=93]"^T1"f/e/[Q:1/4=96]"^T1" .f.=A | %5
 B[Q:1/4=93]"^T1"g/f/[Q:1/4=96]"^T1" .g.=B .cd/e/ f2- | %6
[Q:1/4=92]"^T1" f[Q:1/4=93]"^T1"e/d/[Q:1/4=94]"^T1" c/B/[Q:1/4=96]"^T1"A/G/ .Fa.g.f | %7
 .ed.e.f .=Bc.d.B || %8
[Q:1/4=90]"^T1" .c[Q:1/4=93]"^T1"g/^f/[Q:1/4=94]"^T1" .g[Q:1/4=96]"^T1".d[Q:1/4=94]"^T1" e2 z .=e[Q:1/4=96]"^T1" | %9
[Q:1/4=90]"^T1" .f[Q:1/4=92]"^T1"f/=e/[Q:1/4=94]"^T1" .f[Q:1/4=96]"^T1".c d2 z d | %10
 e e/d/ .e.B[Q:1/4=93]"^T1" c[Q:1/4=96]"^T1"e/d/ .e.f | %11
[Q:1/4=93]"^T1" .B[Q:1/4=96]"^T1"e/d/ .e.f A/B/[Q:1/4=92]"^T1" c2[Q:1/4=96]"^T1" B/A/ | %12
[Q:1/4=90]"^T1" G/E/[Q:1/4=92]"^T1"F/G/[Q:1/4=94]"^T1" A/B/[Q:1/4=96]"^T1"c/d/[Q:1/4=92]"^T1" e/d/[Q:1/4=96]"^T1"c/d/ e/f/g/=a/ | %13
[Q:1/4=90]"^T1" b/F/[Q:1/4=92]"^T1"G/A/[Q:1/4=94]"^T1" B/c/[Q:1/4=96]"^T1"d/=e/ f/_e/d/e/ f/g/=a/b/ | %14
[Q:1/4=90]"^T1" c'[Q:1/4=92]"^T1"=b/=a/[Q:1/4=94]"^T1" g/f/[Q:1/4=96]"^T1"e/d/ cedc | %15
 B=ABc ^F[Q:1/4=93]"^T1"G[Q:1/4=96]"^T1"AF || %16
 Gd/c/[Q:1/4=90]"^T1" .d[Q:1/4=92]"^T1" z[Q:1/4=94]"^T1" z[Q:1/4=96]"^T1" =e/d/[Q:1/4=90]"^T1" .e[Q:1/4=92]"^T1" z | %17
[Q:1/4=94]"^T1" z[Q:1/4=96]"^T1" ^f/=e/ .f z z G/F/ .G z | %18
[Q:1/4=90]"^T1" z[Q:1/4=92]"^T1" =A/G/[Q:1/4=94]"^T1" .A[Q:1/4=96]"^T1" z z =B/A/ .B z | %19
[Q:1/4=90]"^T1" z[Q:1/4=92]"^T1" c/=B/[Q:1/4=94]"^T1" .c[Q:1/4=96]"^T1".G Ac/B/ .c.d | %20
 Gc/=B/ .c.d F/G/[Q:1/4=92]"^T1" A2[Q:1/4=96]"^T1" G/F/ | %21
 E[Q:1/4=92]"^T1" c/=B/[Q:1/4=93]"^T1" c[Q:1/4=94]"^T1"G[Q:1/4=90]"^T1" A2 z =A[Q:1/4=96]"^T1"[Q:1/4=94]"^T1"[Q:1/4=95]"^T1"[Q:1/4=96]"^T1" | %22
 .BB/=A/ BF G2 z[Q:1/4=96]"^T1" G-[Q:1/4=90]"^T1"[Q:1/4=92]"^T1"[Q:1/4=94]"^T1" | %23
[Q:1/4=90]"^T1" G[Q:1/4=92]"^T1"A/B/[Q:1/4=94]"^T1" c/=B/[Q:1/4=96]"^T1"c/A/[Q:1/4=92]"^T1" F4[Q:1/4=94]"^T1"[Q:1/4=96]"^T1" | %24
[Q:1/4=88]"^T1" F[Q:1/4=96]"^T1"d/c/ .d.F[Q:1/4=88]"^T1" E[Q:1/4=96]"^T1"e/d/ .e.G | %25
[Q:1/4=90]"^T1" F[Q:1/4=94]"^T1"f/e/[Q:1/4=96]"^T1" .f.A[Q:1/4=90]"^T1" G/f/[Q:1/4=92]"^T1"e/d/[Q:1/4=94]"^T1" c/=B/[Q:1/4=96]"^T1"=A/G/ | %26
 .cf.e.d z A.G.F | %27
 .G[Q:1/4=92]"^T1"F/E/[Q:1/4=96]"^T1" .FD A.G[Q:1/4=80]"^T1" z[Q:1/4=93]"^T1" =A | %28
 =B[Q:1/4=91]"^T1"c F/E/D/C/[Q:1/4=90]"^T1" Cc/B/ .c.G | %29
[Q:1/4=82]"^T1" .A[Q:1/4=90]"^T1"c/=B/ .c.d[Q:1/4=68]"^T1" G[Q:1/4=87]"^T1"c/B/ .c.d | %30
[Q:1/4=85]"^T1" F/G/[Q:1/4=60]"^T1" A2[Q:1/4=70]"^T1" G/F/[Q:1/4=50]"^T1" =E4 |] %31
V:2
 z c/=B/ .c.G .Ac/B/ .c.d | .Gc/=B/ .c.d F/G/ A2 G/F/ | E/c/=B/=A/ G/F/E/D/ .C.e.d.c | %3
 .B=A.B.c ^FGAF | G2 z/ C/D/E/ F/G/A- A/D/E/F/ | G/=A/B- B/E/F/G/ _A/G/F/E/ .Dc/=B/ | %6
 c2 z2 z f.e.d | z AG.F .GF/E/ .F.D || G2 z .=B .cc/B/ .c.G | A2 z =A BB/A/ BF | G2 z G AAGF | %11
[K:bass] z A,B,C z A,/G,/ A,F, | B,CB,A, B,G,F,E, | F,_DCB, CA,G,F, | %14
[K:treble] G,G/^F/ .G.C EG/F/ .G.=A | DG/^F/ .G.=A C/D/ E2 D/C/ || %16
 B, z z/ D/=E/^F/ G/=A/B- B/E/=F/G/ | =A/B/c c/^F/G/A/ BE/D/ .E.G, | .A,F/E/ F.=A, B,G/F/ .G.=B, | %19
 C/F/E/D/ C/B,/A,/G,/ F,A.G.F | EDEF =B,CDB, | C2 z E FF/=E/ FC | D2 z D EE/D/ EB, | %23
 C4- CD/E/ F/E/F/D/ | =B, z z B, C z z E | D z z F F z z F | EAGF EDEF | =B,CDB, B,C z C | %28
 F/D/E/C/- C=B, C2 z E | F2 z .[FA] .FE/D/ EF | [=B,D] z [B,D] z [G,C]4 |] %31
V:3
 z8 | z8 | z8 | z8 | z8 | z8 | z C/=B,/ .C.G, .A,C/B,/ .C.D | .G,C/=B,/ .C.D F,/G,/ A,2 G,/F,/ || %8
 E,/C/=B,/=A,/ G,/F,/E,/D,/ C,/D,/E,/D,/ C,/B,,/A,,/G,,/ | %9
 F,,/B,/A,/G,/ F,/E,/D,/C,/ B,,/C,/D,/C,/ B,,/A,,/G,,/F,,/ | %10
 E,,/A,/G,/F,/ E,/_D,/C,/B,,/ .A,,C.B,.A, | G,F,G,A, D,E,F,D, | C,A,G,F, G,E,D,C, | %13
 D,B,A,G, A,F,E,D, | E, z z2 z C,.B,,.=A,, | z E,.D,.C, .D,C,/B,,/ .C,.D, || %16
 G,,B,/=A,/ .B,.D, .E,C/B,/ .C.=E, | .F,D/C/ .D.^F, G,2 z/ G,,/=A,,/=B,,/ | %18
 C,/D,/E,- E,/=A,,/B,,/C,/ D,/E,/F, F,/=B,,/C,/D,/ | .E, z z .=E, .F,F,,.E,,.D,, | %20
 z A,,.G,,.F,, .G,,F,,/E,,/ .F,,.G,, | C,/D,/E,/D,/ C,/B,,/A,,/G,,/ F,,/B,/A,/G,/ F,/E,/D,/C,/ | %22
 B,,/C,/D,/C,/ B,,/A,,/G,,/F,,/ E,,/A,/G,/F,/ E,/D,/C,/B,,/ | %23
 A,,/B,,/C,/B,,/ A,,/G,,/F,,/E,,/ D,,/G,/F,/E,/ D,/C,/=B,,/=A,,/ | %24
 G,,2 z2 z/ G,,/=A,,/=B,,/ C,/D,/E,/F,/ | G,/F,/A,/G,/ F,/E,/D,/C,/ =B,,C,/B,,/ C,G,, | %26
 .A,,C,/=B,,/ .C,.D, G,,C,/B,,/ .C,.D, | F,,/G,,/ A,,2 G,,/F,,/ E,,2 z E, | D,C,G,G,, [C,,C,]4- | %29
 [C,,C,]8- | [C,,C,]8 |] %31

